X: 34770
T: Road To Perditon
R: reel
M: 4/4
K: Eminor
c3A ~B3 G|AB (3BAG FGAB|cdcA BcBG|
dcAG FGAB|.c2 cA Bc (3cBG|ABAG FGAB|
[1 cgec BfdB|ABEG Ac/A/ EG:|2 cGEc BfdB|ABEG Ac/A/ EG||
A2 zg f~d3|ABEG ABcB|~A3z f~d3|ABEG (3ABA EG|
.A2 fgf~d3|ABEG ABcG|cGEc BFdB|~B2EG ~A2EG:|

